X: 9618
T: Dawn, The
R: reel
M: 4/4
K: Amajor
A,2CE D2FA|E2GB A2cA|BEcE dEcE|BAGF EDCB,|
A,2CE D2FA|E2GB A2ce|fefg afed|cABG A2 (3efg:|
a2 ae fece|fbbg agfe|(3gab eg be gb|fedf e2 (3efg|
a2 ae fece|fgaf eAce|fefg afed|cABG A2:|

